_inc/images/systems/logos/atarist.svg

<svg viewBox="0 0 3840 634.1" xmlns="http://www.w3.org/2000/svg">
    <path class="st7" d="m2929 405.1 11.4 8.9c39.8 30.8 87.7 56 138.9 56 21.9 0 56.8-8.9 56.8-36.6 0-27.6-29.2-30-49.5-34.1l-44.7-8.1C2955 375.8 2882 324.6 2882 228.8c0-145.3 132.4-226.5 265.5-226.5 69.8 0 134 17 194.1 53.6l-60.1 156.7c-38.2-26-81.2-46.3-129.1-46.3-19.5 0-47.9 7.3-47.9 32.5 0 22.7 27.6 26 44.6 30l50.4 11.4c94.2 21.1 162.4 71.5 162.4 175.4 0 146.2-133.2 218.4-265.5 218.4-77.2 0-166.5-21.1-235.5-56l68.1-172.9ZM3372.3 12H3840v171.8l-122.6.3v440.2h-222.5V184.1l-122.6-.3V12ZM281.3 1.4c16-.1 32 0 47.9 0 .1 37.6 0 75.1 0 112.7.2 31.4-.7 62.7-2 94-2.1 45.2-5 90.6-12.5 135.3-5.1 30.8-15.8 60.6-29 88.8-21.6 45.5-55.5 84-93.6 116.4-34.1 30-74.8 51.9-117.6 66.7C50.3 623.5 25.4 630 0 633.5V539c30.6-4.6 59.9-15.4 87.2-29.8 32.4-17.1 61.5-40.1 86-67.3 25.3-28 45.5-60.5 60.8-94.9 18-39.6 27.7-82.4 34.3-125.2 8.2-54.4 11.7-109.5 12.9-164.5.2-18.6.1-37.3.1-55.9Zm67.3 0c29.4-.2 58.8 0 88.2-.1v632.2c-29.3.1-58.7-.1-88 .1-.4-67.2-.1-134.4-.2-201.6 0-143.5.1-287 0-430.6Zm107.8 0h47.7c-.5 64.2 1.7 128.6 9.3 192.5 6.3 49.6 15.1 99.5 34.9 145.7 18.7 44.7 45.7 86.2 80.9 119.7 33.6 32 74.3 56.6 118.5 70.8 12.3 3.9 25 7 37.8 8.9v94.5c-25.2-3.4-49.9-9.9-74-18.1-28.6-10-56.3-22.9-81.8-39.4-18.6-12-35.5-26.2-51.7-41.2-26.7-24.7-50.7-52.7-68.7-84.4-14-24.7-24.3-51.4-32.3-78.7-7.4-27.4-10.5-55.7-13.4-83.8-5.5-60.8-7.6-121.9-7.2-183V1.4Zm619 26.1C1100-4 1150.9-9.4 1181.1 17c12.3 10.4 21 24.7 25.4 40.2 55.9 192.2 112 384.3 167.7 576.5-33 0-65.9-.1-98.9 0-15.5-53-30.7-106.1-46.1-159.1-63.7-.1-127.5 0-191.2-.1-15.6 53-31 106.1-46.3 159.2-32.8-.1-65.6 0-98.4-.1C946.4 450.3 999.6 267 1052.9 83.7c6.3-19.1 8.7-40.6 22.5-56.2m58.2 117.7c-23.4 79.6-46.3 159.4-69.5 239 46.3.2 92.6.1 138.9.1-23.1-79.6-46.2-159.4-69.4-239.1Zm636.2-113.6c17.2-24.9 50.4-37 79.6-29.3 26.8 6.2 47.2 29.2 54.3 55.2 55.8 192 111.8 384 167.6 576-33 .3-66 0-99 .1-15.4-53-30.5-106.1-46-159.2-63.6 0-127.2-.1-190.9.1-15.2 53.1-30.9 106-46.1 159.1h-98.2c53-184.3 106.7-368.5 160.2-552.7 5.6-16.6 7.7-34.9 18.5-49.3m-8 352.8c46.1.1 92.2 0 138.4 0-23-79.9-46.3-159.7-69.2-239.5-23 79.8-46.3 159.6-69.2 239.5ZM1300.4 1.3h357.7v96.5c-43.9 0-87.8-.1-131.7 0v535.8h-94.3V97.8c-43.9-.1-87.8 0-131.7 0V1.3Zm875.8 4c9.1-3.1 18.7-4.2 28.3-4 37.6.1 75.2 0 112.8.1 63.3 1.2 123.7 40.5 151.1 97.4 19 37 20.9 80 16.1 120.6-3.3 42.5-21.1 85-53.8 113.2-17.2 15.4-38.7 24.7-57.2 38.4-10.1 7.7-10.7 22.7-5.4 33.5 49.9 77 101.8 152.9 152.7 229.2-37.3.1-74.5-.1-111.8.1-48.8-73.3-97-146.9-145.6-220.3-14.3-20.9-18.2-48.5-9.6-72.4 6.7-18.3 22.7-31.6 40.4-38.6 34-13 67.5-33.3 86.3-65.4 14.3-24.1 13.6-53.8 7.1-80.2-7.5-34.2-40.9-61.1-76.1-60-24.4.2-48.7-.1-73 .1-11-.3-21.4 9.3-21.2 20.5-.1 172 .1 344-.1 516.1-31.7-.1-63.3 0-95 0-.1-185.2.1-370.4-.1-555.6.2-32.3 23.3-62.9 54.1-72.7Zm394.4-4h100c0 210.8.1 421.6-.1 632.3-33.3-.1-66.6 0-99.9 0V1.3Z" style="fill:#fff"/>
</svg>

<?xml version="1.0" encoding="utf-8"?>
<svg version="1.1" viewBox="0 0 3840 634.1" xmlns="http://www.w3.org/2000/svg">
  <path class="st7" d="M 2929 405.1 L 2940.4 414 C 2980.2 444.8 3028.1 470 3079.3 470 C 3101.2 470 3136.1 461.1 3136.1 433.4 C 3136.1 405.8 3106.9 403.4 3086.6 399.3 L 3041.9 391.2 C 2955 375.8 2882 324.6 2882 228.8 C 2882 83.5 3014.4 2.3 3147.5 2.3 C 3217.3 2.3 3281.5 19.3 3341.6 55.9 L 3281.5 212.6 C 3243.3 186.6 3200.3 166.3 3152.4 166.3 C 3132.9 166.3 3104.5 173.6 3104.5 198.8 C 3104.5 221.5 3132.1 224.8 3149.1 228.8 L 3199.5 240.2 C 3293.7 261.3 3361.9 311.7 3361.9 415.6 C 3361.9 561.8 3228.7 634 3096.4 634 C 3019.2 634 2929.9 612.9 2860.9 578 L 2929 405.1 Z" style="fill: rgb(255, 255, 255);"/>
  <path class="st7" d="M 3372.3 12 L 3840 12 L 3840 183.8 L 3717.4 184.1 L 3717.4 624.3 L 3494.9 624.3 L 3494.9 184.1 L 3372.3 183.8 L 3372.3 12 L 3372.3 12 Z" style="fill: rgb(255, 255, 255);"/>
  <path class="st7" d="M 281.3 1.4 C 297.3 1.3 313.3 1.4 329.2 1.4 C 329.3 39 329.2 76.5 329.2 114.1 C 329.4 145.5 328.5 176.8 327.2 208.1 C 325.1 253.3 322.2 298.7 314.7 343.4 C 309.6 374.2 298.9 404 285.7 432.2 C 264.1 477.7 230.2 516.2 192.1 548.6 C 158 578.6 117.3 600.5 74.5 615.3 C 50.3 623.5 25.4 630 0 633.5 C 0 602 0 570.5 0 539 C 30.6 534.4 59.9 523.6 87.2 509.2 C 119.6 492.1 148.7 469.1 173.2 441.9 C 198.5 413.9 218.7 381.4 234 347 C 252 307.4 261.7 264.6 268.3 221.8 C 276.5 167.4 280 112.3 281.2 57.3 C 281.4 38.7 281.3 20 281.3 1.4 Z" style="fill: rgb(255, 255, 255);"/>
  <path class="st7" d="M 348.6 1.4 C 378 1.2 407.4 1.4 436.8 1.3 C 436.8 212 436.8 422.7 436.8 633.5 C 407.5 633.6 378.1 633.4 348.8 633.6 C 348.4 566.4 348.7 499.2 348.6 432 C 348.6 288.5 348.7 145 348.6 1.4 Z" style="fill: rgb(255, 255, 255);"/>
  <path class="st7" d="M 456.4 1.4 C 472.3 1.4 488.2 1.4 504.1 1.4 C 503.6 65.6 505.8 130 513.4 193.9 C 519.7 243.5 528.5 293.4 548.3 339.6 C 567 384.3 594 425.8 629.2 459.3 C 662.8 491.3 703.5 515.9 747.7 530.1 C 760 534 772.7 537.1 785.5 539 C 785.5 570.5 785.5 602 785.5 633.5 C 760.3 630.1 735.6 623.6 711.5 615.4 C 682.9 605.4 655.2 592.5 629.7 576 C 611.1 564 594.2 549.8 578 534.8 C 551.3 510.1 527.3 482.1 509.3 450.4 C 495.3 425.7 485 399 477 371.7 C 469.6 344.3 466.5 316 463.6 287.9 C 458.1 227.1 456 166 456.4 104.9 C 456.4 70.4 456.4 35.9 456.4 1.4 Z" style="fill: rgb(255, 255, 255);"/>
  <path class="st7" d="M 1075.4 27.5 C 1100 -4 1150.9 -9.4 1181.1 17 C 1193.4 27.4 1202.1 41.7 1206.5 57.2 C 1262.4 249.4 1318.5 441.5 1374.2 633.7 C 1341.2 633.7 1308.3 633.6 1275.3 633.7 C 1259.8 580.7 1244.6 527.6 1229.2 474.6 C 1165.5 474.5 1101.7 474.6 1038 474.5 C 1022.4 527.5 1007 580.6 991.7 633.7 C 958.9 633.6 926.1 633.7 893.3 633.6 C 946.4 450.3 999.6 267 1052.9 83.7 C 1059.2 64.6 1061.6 43.1 1075.4 27.5 M 1133.6 145.2 C 1110.2 224.8 1087.3 304.6 1064.1 384.2 C 1110.4 384.4 1156.7 384.3 1203 384.3 C 1179.9 304.7 1156.8 224.9 1133.6 145.2 Z" style="fill: rgb(255, 255, 255);"/>
  <path class="st7" d="M 1769.8 31.6 C 1787 6.7 1820.2 -5.4 1849.4 2.3 C 1876.2 8.5 1896.6 31.5 1903.7 57.5 C 1959.5 249.5 2015.5 441.5 2071.3 633.5 C 2038.3 633.8 2005.3 633.5 1972.3 633.6 C 1956.9 580.6 1941.8 527.5 1926.3 474.4 C 1862.7 474.4 1799.1 474.3 1735.4 474.5 C 1720.2 527.6 1704.5 580.5 1689.3 633.6 C 1656.5 633.6 1623.8 633.6 1591.1 633.6 C 1644.1 449.3 1697.8 265.1 1751.3 80.9 C 1756.9 64.3 1759 46 1769.8 31.6 M 1761.8 384.4 C 1807.9 384.5 1854 384.4 1900.2 384.4 C 1877.2 304.5 1853.9 224.7 1831 144.9 C 1808 224.7 1784.7 304.5 1761.8 384.4 Z" style="fill: rgb(255, 255, 255);"/>
  <path class="st7" d="M 1300.4 1.3 C 1419.7 1.3 1538.9 1.3 1658.1 1.3 C 1658.1 33.5 1658.1 65.6 1658.1 97.8 C 1614.2 97.8 1570.3 97.7 1526.4 97.8 C 1526.4 276.4 1526.4 455 1526.4 633.6 C 1495 633.6 1463.5 633.6 1432.1 633.6 C 1432.1 455 1432.1 276.4 1432.1 97.8 C 1388.2 97.7 1344.3 97.8 1300.4 97.8 C 1300.4 65.6 1300.4 33.5 1300.4 1.3 Z" style="fill: rgb(255, 255, 255);"/>
  <path class="st7" d="M 2176.2 5.3 C 2185.3 2.2 2194.9 1.1 2204.5 1.3 C 2242.1 1.4 2279.7 1.3 2317.3 1.4 C 2380.6 2.6 2441 41.9 2468.4 98.8 C 2487.4 135.8 2489.3 178.8 2484.5 219.4 C 2481.2 261.9 2463.4 304.4 2430.7 332.6 C 2413.5 348 2392 357.3 2373.5 371 C 2363.4 378.7 2362.8 393.7 2368.1 404.5 C 2418 481.5 2469.9 557.4 2520.8 633.7 C 2483.5 633.8 2446.3 633.6 2409 633.8 C 2360.2 560.5 2312 486.9 2263.4 413.5 C 2249.1 392.6 2245.2 365 2253.8 341.1 C 2260.5 322.8 2276.5 309.5 2294.2 302.5 C 2328.2 289.5 2361.7 269.2 2380.5 237.1 C 2394.8 213 2394.1 183.3 2387.6 156.9 C 2380.1 122.7 2346.7 95.8 2311.5 96.9 C 2287.1 97.1 2262.8 96.8 2238.5 97 C 2227.5 96.7 2217.1 106.3 2217.3 117.5 C 2217.2 289.5 2217.4 461.5 2217.2 633.6 C 2185.5 633.5 2153.9 633.6 2122.2 633.6 C 2122.1 448.4 2122.3 263.2 2122.1 78 C 2122.3 45.7 2145.4 15.1 2176.2 5.3 Z" style="fill: rgb(255, 255, 255);"/>
  <path class="st7" d="M 2570.6 1.3 C 2603.9 1.3 2637.2 1.3 2670.6 1.3 C 2670.6 212.1 2670.7 422.9 2670.5 633.6 C 2637.2 633.5 2603.9 633.6 2570.6 633.6 C 2570.6 422.9 2570.6 212.1 2570.6 1.3 Z" style="fill: rgb(255, 255, 255);"/>
</svg>
